**kern	**kern	**dynam
*part1	*part1	*part1
*staff2	*staff1	*
*I"Piano	*	*
*clefF4	*clefG2	*
*k[b-e-]	*k[b-e-]	*
=1	=1	=1
8E-L 8B- 8e-	8gL 8b- 8cc#X	.
8E-J 8B- 8e-	8gJ 8b- 8cc#	.
*	*^	*
*tremolo	*	*	*
*	*tremolo	*	*
8E- 8G 8e-L	8bb-L	8b- 8cc#L	.
8E- 8G 8e-	8bb-	8b- 8cc#	.
8E- 8G 8e-	8aa	8b- 8cc#	.
8E- 8G 8e-J	8ggJ	8b- 8cc#J	.
*	*v	*v	*
=	=	=
8D 8G 8dL	8b- 8dd 8ggL	>
8D 8G 8d	8b- 8dd 8gg	.
8D 8G 8d	8b- 8dd 8gg	.
8D 8G 8dJ	8b- 8dd 8ggJ	.
*	*^	*
8DL 8A 8d	4ff#Xt	4ccn	.
8DJ 8A 8d	.	.	.
.	16qqeen/LL	.	]
.	16qqff#/JJ	.	.
=	=	=	=
8GG 8G	4.gg	8b- 8ddL	.
*clefG2	*	*	*
8d 8g	.	8b- 8dd	.
8d 8gL	.	8b- 8dd	.
8d 8g	8bb-L	8b- 8dd	p <
8d 8g	8aa	8b- 8dd	.
8d 8gJ	8ggJ	8b- 8ddJ	.
*	*Xtremolo	*	*
*clefF4	*	*	*
=	=	=	=
8DL 8d	4.ff#X	8.aL 8.cc	[ mp
8dJ	.	.	.
.	.	16b-K 16dd	.
8dL	.	8ccJ 8ee-	.
8d	8ff#L	8ccL 8ee-	p <
8d	8ff#	8b- 8dd	.
8dJ	8ff#J	8aJ 8cc	.
=	=	=	=
8GG 8G	8.b-L 8.gg	4g	[ mp
*clefG2	*	*	*
8d 8g	.	.	.
.	16ccK 16aa	.	.
8d 8gL	8ddJ 8bb-	8r	.
8d 8g	8bb-L	8b-L 8dd	p <
8d 8g	8aa	8b- 8dd	.
8d 8gJ	8ggJ	8b-J 8dd	.
*clefF4	*	*	*
=	=	=	=
8DL 8d	4.ff#X	8.aL 8.cc	[ mf
8dJ	.	.	.
.	.	16b-K 16dd	.
8dL	.	8ccJ 8ee-	.
8d	8ff#L	8ccL 8ee-	<
8d	8ff#	8b- 8dd	.
8dJ	8ff#J	8aJ 8cc	.
*Xtremolo	*	*	*
*	*v	*v	*
=:|!	=:|!	=:|!
4GG 4G	4g'~; 4b- 4dd 4gg	[ f
4G 4B- 4d	4g;	mp
4r	4r	.
==	==	==
*-	*-	*-
!!!system-decoration: {(s1,s2)}
